assets/icons/solid/briefcase-medical.svg

<svg xmlns="http://www.w3.org/2000/svg" viewBox="0 0 512 512"><!--! Font Awesome Free 6.6.0 by @fontawesome - https://fontawesome.com License - https://fontawesome.com/license/free (Icons: CC BY 4.0, Fonts: SIL OFL 1.1, Code: MIT License) Copyright 2024 Fonticons, Inc. --><path d="M184 48l144 0c4.4 0 8 3.6 8 8l0 40L176 96l0-40c0-4.4 3.6-8 8-8zm-56 8l0 40L64 96C28.7 96 0 124.7 0 160L0 416c0 35.3 28.7 64 64 64l384 0c35.3 0 64-28.7 64-64l0-256c0-35.3-28.7-64-64-64l-64 0 0-40c0-30.9-25.1-56-56-56L184 0c-30.9 0-56 25.1-56 56zm96 152c0-8.8 7.2-16 16-16l32 0c8.8 0 16 7.2 16 16l0 48 48 0c8.8 0 16 7.2 16 16l0 32c0 8.8-7.2 16-16 16l-48 0 0 48c0 8.8-7.2 16-16 16l-32 0c-8.8 0-16-7.2-16-16l0-48-48 0c-8.8 0-16-7.2-16-16l0-32c0-8.8 7.2-16 16-16l48 0 0-48z"/></svg>

<svg xmlns="http://www.w3.org/2000/svg" viewBox="0 0 512 512"><!--! Font Awesome Pro 6.2.0 by @fontawesome - https://fontawesome.com License - https://fontawesome.com/license (Commercial License) Copyright 2022 Fonticons, Inc. --><path d="M184 48H328c4.4 0 8 3.6 8 8V96H176V56c0-4.4 3.6-8 8-8zm-56 8V96H64C28.7 96 0 124.7 0 160V416c0 35.3 28.7 64 64 64H448c35.3 0 64-28.7 64-64V160c0-35.3-28.7-64-64-64H384V56c0-30.9-25.1-56-56-56H184c-30.9 0-56 25.1-56 56zm96 152c0-8.8 7.2-16 16-16h32c8.8 0 16 7.2 16 16v48h48c8.8 0 16 7.2 16 16v32c0 8.8-7.2 16-16 16H288v48c0 8.8-7.2 16-16 16H240c-8.8 0-16-7.2-16-16V320H176c-8.8 0-16-7.2-16-16V272c0-8.8 7.2-16 16-16h48V208z"/></svg>
